src/Components/Assets/Img/LMDLogo.svg

<svg width="178" height="49" viewBox="0 0 178 49" fill="none" xmlns="http://www.w3.org/2000/svg">
<path d="M7.888 30.036C8.428 30.036 8.932 30 9.13 29.964V27.894H8.77C7.888 27.894 7.726 27.624 7.726 26.778V16.032H5.296V27.066C5.296 29.316 6.124 30.036 7.888 30.036ZM13.9617 30.18C15.9597 30.18 17.0757 29.73 17.6337 28.992C17.9577 29.82 18.4437 30.036 19.4877 30.036C20.0277 30.036 20.3517 30.018 20.5137 29.964V27.912C19.6677 27.912 19.5957 27.768 19.5957 26.904V23.664C19.5957 20.802 18.8937 19.632 15.3117 19.632C13.2957 19.632 11.5677 20.352 10.8657 20.838L12.1077 22.692C12.7377 22.314 13.7997 21.846 15.0417 21.846C16.9317 21.846 17.2017 22.368 17.2377 23.43H16.7697C12.0357 23.43 10.2177 24.186 10.2177 27.048C10.2177 28.794 10.9017 30.18 13.9617 30.18ZM14.4297 28.128C12.9717 28.128 12.5577 27.696 12.5577 26.85C12.5577 25.626 13.1517 25.266 16.9317 25.266H17.2377V25.716C17.2377 27.408 16.3917 28.128 14.4297 28.128ZM25.8074 30.18C29.1374 30.18 30.3974 29.262 30.3974 26.94C30.3974 24.492 28.5794 24.186 26.0414 23.79C24.6194 23.574 24.1694 23.412 24.1694 22.728C24.1694 22.152 24.5114 21.828 26.0594 21.828C27.1394 21.828 28.2194 22.116 28.9574 22.512L30.1274 20.55C29.0834 19.956 27.5894 19.632 25.9874 19.632C22.8914 19.632 21.7214 20.73 21.7214 22.71C21.7214 25.266 23.5214 25.626 25.9874 25.986C27.5174 26.22 28.0034 26.364 28.0034 27.066C28.0034 27.93 27.4814 28.11 25.9694 28.11C24.8354 28.11 23.4854 27.768 22.3874 27.066L21.1274 28.92C22.4954 29.838 24.1694 30.18 25.8074 30.18ZM31.3102 22.026H33.0022V26.958C33.0022 29.1 33.7042 30.036 36.3322 30.036C36.7462 30.036 37.5922 30.036 37.9522 30V27.894H36.8182C35.5582 27.894 35.4502 27.426 35.4502 26.598V22.026H37.9522V19.866H35.4502V16.878L33.5422 17.274L33.1102 19.866H31.3102V22.026ZM39.9575 30H42.4235V24.492C42.4235 23.016 42.6755 22.008 44.7995 22.008C46.7075 22.008 46.7435 22.98 46.7435 24.33V30H49.2095V24.492C49.2095 23.016 49.4615 22.008 51.6035 22.008C53.4935 22.008 53.5295 22.98 53.5295 24.33V30H55.9955V23.844C55.9955 21.324 55.5635 19.632 52.4495 19.632C50.2715 19.632 49.1555 20.118 48.6515 20.802C48.3455 20.136 47.7875 19.632 45.6635 19.632C43.5575 19.632 42.5135 20.136 42.0815 20.748L41.8655 19.866L39.9575 20.01V30ZM58.3995 30H60.8295V19.866H58.3995V30ZM58.3815 18.84H60.8475V16.41H58.3815V18.84ZM66.0189 30.036C66.5589 30.036 67.0629 30 67.2609 29.964V27.894H66.9009C66.0189 27.894 65.8569 27.624 65.8569 26.778V16.032H63.4269V27.066C63.4269 29.316 64.2549 30.036 66.0189 30.036ZM73.4305 30.198C75.4105 30.198 76.6525 29.784 77.8945 28.848L76.6165 27.192C75.8605 27.75 75.0145 28.146 73.4305 28.146C71.3965 28.146 70.8025 27.3 70.6405 25.896H77.8405C77.9125 22.602 77.7685 19.632 73.4125 19.632C69.1825 19.632 68.2645 22.062 68.2645 24.906C68.2645 27.804 69.1285 30.198 73.4305 30.198ZM73.3405 21.738C75.2845 21.738 75.4825 22.674 75.5545 23.97H70.6405C70.8025 22.602 71.4145 21.738 73.3405 21.738ZM87.6326 30.198C89.6666 30.198 90.7286 29.784 91.3406 29.028L91.6106 30.09L93.4826 29.892V16.032H91.0166V20.658C90.5666 20.046 89.6486 19.632 87.7226 19.632C84.2126 19.632 83.2586 21.918 83.2586 24.87C83.2586 27.858 84.1766 30.198 87.6326 30.198ZM88.2086 28.02C86.1926 28.02 85.7426 26.688 85.7426 24.87C85.7426 23.088 86.1926 21.9 88.2086 21.9C90.3866 21.9 91.0166 22.728 91.0166 24.87C91.0166 27.048 90.2966 28.02 88.2086 28.02ZM100.536 30.198C102.516 30.198 103.758 29.784 105 28.848L103.722 27.192C102.966 27.75 102.12 28.146 100.536 28.146C98.502 28.146 97.908 27.3 97.746 25.896H104.946C105.018 22.602 104.874 19.632 100.518 19.632C96.288 19.632 95.37 22.062 95.37 24.906C95.37 27.804 96.234 30.198 100.536 30.198ZM100.446 21.738C102.39 21.738 102.588 22.674 102.66 23.97H97.746C97.908 22.602 98.52 21.738 100.446 21.738ZM109.595 30.036C110.135 30.036 110.639 30 110.837 29.964V27.894H110.477C109.595 27.894 109.433 27.624 109.433 26.778V16.032H107.003V27.066C107.003 29.316 107.831 30.036 109.595 30.036ZM112.927 30H115.357V19.866H112.927V30ZM112.909 18.84H115.375V16.41H112.909V18.84ZM120.708 30.108H123.318L127.35 19.866H124.83L122.076 27.156L119.322 19.866H116.694L120.708 30.108ZM132.897 30.198C134.877 30.198 136.119 29.784 137.361 28.848L136.083 27.192C135.327 27.75 134.481 28.146 132.897 28.146C130.863 28.146 130.269 27.3 130.107 25.896H137.307C137.379 22.602 137.235 19.632 132.879 19.632C128.649 19.632 127.731 22.062 127.731 24.906C127.731 27.804 128.595 30.198 132.897 30.198ZM132.807 21.738C134.751 21.738 134.949 22.674 135.021 23.97H130.107C130.269 22.602 130.881 21.738 132.807 21.738ZM139.256 30H141.722V24.888C141.722 23.214 142.316 22.17 144.728 22.152V19.758C143.072 19.794 141.848 20.334 141.416 21L141.164 19.866L139.256 20.01V30ZM147.511 33.042C149.743 33.042 150.589 32.358 151.255 30.594L155.395 19.866H152.857L150.355 26.814L147.799 19.866H145.171L149.041 29.82L148.861 30.324C148.663 30.954 148.375 31.116 147.295 31.116H146.539V33.024C146.809 33.042 147.295 33.042 147.511 33.042Z" fill="black"/>
</svg>

<svg fill="none" height="49" viewBox="0 0 178 49" width="178" xmlns="http://www.w3.org/2000/svg"><path d="m7.888 30.036c.54 0 1.044-.036 1.242-.072v-2.07h-.36c-.882 0-1.044-.27-1.044-1.116v-10.746h-2.43v11.034c0 2.25.828 2.97 2.592 2.97zm6.0737.144c1.998 0 3.114-.45 3.672-1.188.324.828.81 1.044 1.854 1.044.54 0 .864-.018 1.026-.072v-2.052c-.846 0-.918-.144-.918-1.008v-3.24c0-2.862-.702-4.032-4.284-4.032-2.016 0-3.744.72-4.446 1.206l1.242 1.854c.63-.378 1.692-.846 2.934-.846 1.89 0 2.16.522 2.196 1.584h-.468c-4.734 0-6.552.756-6.552 3.618 0 1.746.684 3.132 3.744 3.132zm.468-2.052c-1.458 0-1.872-.432-1.872-1.278 0-1.224.594-1.584 4.374-1.584h.306v.45c0 1.692-.846 2.412-2.808 2.412zm11.3777 2.052c3.33 0 4.59-.918 4.59-3.24 0-2.448-1.818-2.754-4.356-3.15-1.422-.216-1.872-.378-1.872-1.062 0-.576.342-.9 1.89-.9 1.08 0 2.16.288 2.898.684l1.17-1.962c-1.044-.594-2.538-.918-4.14-.918-3.096 0-4.266 1.098-4.266 3.078 0 2.556 1.8 2.916 4.266 3.276 1.53.234 2.016.378 2.016 1.08 0 .864-.522 1.044-2.034 1.044-1.134 0-2.484-.342-3.582-1.044l-1.26 1.854c1.368.918 3.042 1.26 4.68 1.26zm5.5028-8.154h1.692v4.932c0 2.142.702 3.078 3.33 3.078.414 0 1.26 0 1.62-.036v-2.106h-1.134c-1.26 0-1.368-.468-1.368-1.296v-4.572h2.502v-2.16h-2.502v-2.988l-1.908.396-.432 2.592h-1.8zm8.6473 7.974h2.466v-5.508c0-1.476.252-2.484 2.376-2.484 1.908 0 1.944.972 1.944 2.322v5.67h2.466v-5.508c0-1.476.252-2.484 2.394-2.484 1.89 0 1.926.972 1.926 2.322v5.67h2.466v-6.156c0-2.52-.432-4.212-3.546-4.212-2.178 0-3.294.486-3.798 1.17-.306-.666-.864-1.17-2.988-1.17-2.106 0-3.15.504-3.582 1.116l-.216-.882-1.908.144zm18.442 0h2.43v-10.134h-2.43zm-.018-11.16h2.466v-2.43h-2.466zm7.6374 11.196c.54 0 1.044-.036 1.242-.072v-2.07h-.36c-.882 0-1.044-.27-1.044-1.116v-10.746h-2.43v11.034c0 2.25.828 2.97 2.592 2.97zm7.4116.162c1.98 0 3.222-.414 4.464-1.35l-1.278-1.656c-.756.558-1.602.954-3.186.954-2.034 0-2.628-.846-2.79-2.25h7.2c.072-3.294-.072-6.264-4.428-6.264-4.23 0-5.148 2.43-5.148 5.274 0 2.898.864 5.292 5.166 5.292zm-.09-8.46c1.944 0 2.142.936 2.214 2.232h-4.914c.162-1.368.774-2.232 2.7-2.232zm14.2921 8.46c2.034 0 3.096-.414 3.708-1.17l.27 1.062 1.872-.198v-13.86h-2.466v4.626c-.45-.612-1.368-1.026-3.294-1.026-3.51 0-4.464 2.286-4.464 5.238 0 2.988.918 5.328 4.374 5.328zm.576-2.178c-2.016 0-2.466-1.332-2.466-3.15 0-1.782.45-2.97 2.466-2.97 2.178 0 2.808.828 2.808 2.97 0 2.178-.72 3.15-2.808 3.15zm12.3274 2.178c1.98 0 3.222-.414 4.464-1.35l-1.278-1.656c-.756.558-1.602.954-3.186.954-2.034 0-2.628-.846-2.79-2.25h7.2c.072-3.294-.072-6.264-4.428-6.264-4.23 0-5.148 2.43-5.148 5.274 0 2.898.864 5.292 5.166 5.292zm-.09-8.46c1.944 0 2.142.936 2.214 2.232h-4.914c.162-1.368.774-2.232 2.7-2.232zm9.149 8.298c.54 0 1.044-.036 1.242-.072v-2.07h-.36c-.882 0-1.044-.27-1.044-1.116v-10.746h-2.43v11.034c0 2.25.828 2.97 2.592 2.97zm3.332-.036h2.43v-10.134h-2.43zm-.018-11.16h2.466v-2.43h-2.466zm7.799 11.268h2.61l4.032-10.242h-2.52l-2.754 7.29-2.754-7.29h-2.628zm12.189.09c1.98 0 3.222-.414 4.464-1.35l-1.278-1.656c-.756.558-1.602.954-3.186.954-2.034 0-2.628-.846-2.79-2.25h7.2c.072-3.294-.072-6.264-4.428-6.264-4.23 0-5.148 2.43-5.148 5.274 0 2.898.864 5.292 5.166 5.292zm-.09-8.46c1.944 0 2.142.936 2.214 2.232h-4.914c.162-1.368.774-2.232 2.7-2.232zm6.449 8.262h2.466v-5.112c0-1.674.594-2.718 3.006-2.736v-2.394c-1.656.036-2.88.576-3.312 1.242l-.252-1.134-1.908.144zm8.255 3.042c2.232 0 3.078-.684 3.744-2.448l4.14-10.728h-2.538l-2.502 6.948-2.556-6.948h-2.628l3.87 9.954-.18.504c-.198.63-.486.792-1.566.792h-.756v1.908c.27.018.756.018.972.018z" fill="#000"/></svg>
